X:1
T:Domine non mea
T:Giovanni Battista Cirri (1724-1808)
T:The Bible, Gospel of Saint Luke, chapter 22, verse 42
T:Domine non mea
T:Copyright © 
C:Giovanni Battista Cirri (1724-1808)
Z:The Bible, Gospel of Saint Luke,
Z:chapter 22, verse 42
Z:Copyright ©
%%score [ 1 2 3 ]
L:1/8
M:2/2
K:G
V:1 treble nm="P1"
V:2 treble nm="P2"
V:3 bass nm="P3"
V:1
 G4 G2 G2 | d8 | (d4"^Canon" c4) |: B8 | A8 | E8 | z2 d2 d2 d2 | (e4 f4) | g8- | g4 =f4 | e8 | d8 | %12
w: Do- mi- ne|non|me- *|||a,|sed tu- a|vo- *|lun-|* tas|fi-|at,|
 z2 A2 A2 A2 | B4 c4- | c4 B4 | A8 | G4 G2 G2 | d8 | (d4 c4) :| B8 | A8 |] %21
w: vo- lun- tas|fi- *||at,|do- mi- ne|non|me- *||a|
V:2
 z8 | D4 D2 D2 | A8 |: (A4 G4) | F8 | E8 | D8 | z2 A2 A2 A2 | (B4 ^c4) | d8- | d4 c4 | B8 | A8 | %13
w: |Do- mi- ne|non|me- *|||a,|sed tu- a|vo- *|lun-|* tas|fi-|at,|
 z2 E2 E2 E2 | F4 G4- | G4 F4 | E8 | D4 D2 D2 | A8 :| (A4 G4) | F8 |] %21
w: vo- lun- tas|fi- *||at,|do- mi- ne|non|me- *|a|
V:3
 z8 | z8 | z8 |: G,,4 G,,2 G,,2 | D,8 | (D,4 C,4) | B,,8 | A,,8 | G,,8 | z2 D,2 D,2 D,2 | %10
w: |||Do- mi- ne|non|me- *|||a,|sed tu- a|
 (E,4 F,4) | G,8- | G,4 =F,4 | E,8 | D,8 | z2 A,,2 A,,2 A,,2 | B,,4 C,4- | C,4 B,,4 | A,,8 :| %19
w: vo- *|lun-|* tas|fi-|at,|vo- lun- tas|fi- *||at,|
 G,,4 G,,2 G,,2 | D,8 |] %21
w: do- mi- ne|non|

